!!!PDT:	1923
!!!LANG: Non-Tone
!!!LING_GROUP: Siouan
!!!REG: Dakotas
!!!COM: Anon.
!!!OTL: Song of the Spirit Women
!!!ODT: <1918//
!!!MPN: Wopite [Scattered Corn, Mrs. Holding Eagle]
!!!MLC: Fort Berthold Reservation, North Dakota, United States of America
!! Song was recorded during either the summer of 1912, 1915, or 1918.
!!!AGN: monody
!!!SOCIAL_FUNCTION: Ceremony of the Little River Women Society
!!!AMT: irregular
!!!RWG: Transcribed pitches, durations, and meters are only approximate.
!! Drum Tempo: MM108
!! Drum-rhythm: (4 4 4 4)
**kern
*ICvox
*Ifemale
*clefG2
*k[f#c#g#d#]
*M3/4
*MM108
{16b
=1
16b
8g#
16b
8.b
16cc#
(12cc#
12b
12g#)
*M2/4
=2
16b
8.g#
4g#
*M3/4
=3
4e
4e}
{8.e
16b
=4
16g#
8e
16g#
8.g#
16b
(12b
12g#
12e)
*M2/4
=5
16g#
8.e
8e;}
{16g#
16e
*clefF4
*M3/4
=6
8B
8B
8.B
16e
8.B
16g#
=7
16B
8.G#
4G#
=8
4.E}
{8B
*M3/4
=9
8B
8B
8.B
16e
8.B
16g#
*M2/4
=10
16B
8.G#
4G#
=11
4E
8.E
16E
=12
2E
=13
4.E}
*clefG2
{8g#
*M3/4
=14
(16g#
8.e)
8.g#;
16b
(12b
12g#
12e)
*M2/4
=15
4.e}
{(16g#
16e)
*clefF4
*M3/4
=16
8B
8B
8.B
16e
8.B
16G#
*M2/4
=17
16B
8.G#
4G#
=18
4.E;}
{8B
*M3/4
=19
8B
8B
8.B
16e
(8.B
16G#)
*M2/4
=20
(16B
8.G#)
4G#
=21
4E
8.E
16E
=22
2E}
==
*-
!!!CNT: Mandan
!!!TXO: Mandan
!!!OCY: United States
!!!OCL: Frances Densmore
!!!YOR: Frances Densmore, "Mandan and Hidatsa Music",
!!!YOR: Bulletin 80, page 101, No. 39
!!!PPR: Smithsonian Institution, Bureau of American Ethnology
!!!PPR: Government Printing Office
!!!PDT: 1923
!!!PPP: Washington, DC, United States of America
!!!YEC: Electronic Copyright 2000 David Huron
!!!YER: August 2000
!!!YEN: United States of America
!!!ENC: David Huron
!!!RDT: August 16, 2000
!!!EEV: Release 1.0
!!!AIN: tom, vox
